X: 46
T:Delaney's Frolics (#242)
M:4/4
L:1/8
S:Capt. F. O'Neill
R:Reel
K:G
c|:B2 Bc A2 Bc|dBcA BE ~E2|B2 Bc A2 fg|afeg fd d2:||
K:D
fddc dfaf|gfed cdeg|fddc defd|eaag ed d2|
fddc dfaf|gfed cdeg|f2 fd g2 ge|afge fd d2||

